X: 26379
T: Merry Blacksmith, The
R: reel
M: 4/4
K: Dmajor
|:"D" (d2"d"d) A BA"d"FA|AB"d"dA BA"d"FA|AB"d"de fd"d"ed|"G" Be"g"ed "A"egfe|
"D" (d2"d"d) A BA"d"FA|AB"d"dA BA"d"FA|AB"d"de "G"fd"g"ec|1 "A" dB"a"AF "D"D2A2:|2 "A" dB"a"AF "D"D2fg||
|:"D" a2"d"ag fg"d"fe|de"d"dA BA"d"FA|AB"d"de fd"d"ed|"G" Be"g"ed "A"egfe|
"D" ab"d"ag fg"d"fe|de"d"dA BA"d"FA|AB"d"de "G"fd"g"ec|1 "A" dB"a"AF "D"D2fg:|2 "A" dB"a"AF "D"D2A2||

